X:325
T:Harry's Trip
D:Wick S.C.D., A Call From the North (1973)
O:Scotland
Z:Nigel Gatherer
L:1/8
M:2/4
K:A
d/e/|ff/a/ g/f/e/d/|B/c/d/B/ A>B|AA/B/ A/B/d/e/|fe ed/e/|
ff/a/ g/f/e/d/|B/c/d/B/ A>B|AA/B/ A/B/d/e/|fd d:|
d/e/|ff/g/ f/e/d/f/|g/f/g/a/ g>z|f/a/a/b/ a/f/d/e/|fe ed/e/|
ff/a/ g/f/e/d/|B/c/d/B/ A>B|AA/B/ A/B/d/e/|fd d:|
<end>
<start>
